X: 12693
T: Father Dollard's
R: hornpipe
M: 4/4
K: Dmajor
FE|D2 (3DDD DFAB|d2 fd edBA|(3FED AD BDAD|GFED EGFE|
D2 (3DDD DFAB|d2 fd edBA|Adfa gece|eddc d2:|
|:de|fd d2 Ad d2|fdad bdad|gfed cdef|(3gag fg edd2|
Ad d2 AdFd|Ad d2 AdFd|Adfa gece|eddc d2:|

